X: 10862
M: 2/4
L: 1/16
K: Bb
d>e |\
f>BB>c d>FF>A | B>DD>E F2e>d |\
(dc)(ed) (gf)(cd) | eFBd c2d>e |\
f>gf>d f>ec>d | e>cd>B c>BG>E |\
!pp! F2 |\
d>ed>c (cB)(BG) | FDB>D C>ED>C |\
d>Bc>A B2A>B | G2G2 {A}G>FD>F |
!ff!B2B,>D F>DB>A | G2G2 {A}G>FD>F |\
d>ed>B c>BG>A | B>cB>G F>DC>B, |\


